X: 3
T: The Mist On The Mountain
R: jig
M: 6/8
L: 1/8
K: Ador
G|EAA ABd|edB AGE|~G3 GAB|dBA GED|EAA ABd|edB ABd|efg dBG|BAG A2:|


Tune 256	Setting 12984

